X:1
T: Fairbairn's
C:
R:Strathspey
Q: 128
K:A
M:4/4
L:1/16
cB|A3E ((3C2E2A2) ((3D2F2A2) ((3C2E2A2) |((3D2F2A2) ((3C2E2A2) B,B3 B2cB|A3E ((3C2E2A2) ((3D2F2A2) ((3C2E2A2)|((3D2F2A2) ((3B,2E2G2) A4 A2cB|
A3E ((3C2E2A2) ((3D2F2A2) ((3C2E2A2) |((3D2F2A2) ((3C2E2A2) B,B3 B2cB|A3E ((3C2E2A2) ((3D2F2A2) ((3C2E2A2) |((3D2F2A2) ((3B,2E2G2) A4 A2e2|
a3A g3A f3A e3c|d3B dcBA GB3 B3g|a3A g3A f3A e3c|((3d2e2f2) e3c A4 A2e2|
a3A g3A f3A e3c|d3B dcBA GB3 B3c|((3A2B2c2) ((3B2c2d2) ((3c2d2e2) ((3d2e2f2) |((3e2d2c2) ((3B2c2d2) cA3 A2e2|
e'3A c'3A a3A e3A|((3A2c2e2) ((3A2c2e2) GB3 B3e|e'3A c'3A a3A e3c|((3d2e2f2) e3c A4 A2e2|
e'3A c'3A a3A e3A|((3A2c2e2) ((3A2c2e2) GB3 B3e|((3e2a2c'2) ((3e2b2d'2) ((3e2e'2c'2) a3c|((3d2e2f2) e3c A4 A2||
